!!!COM: des Prez, Josquin
!!!CDT: ~1450-1521/08/27
!!!OTL@@FRE: Petite camusette
!!!AGN: Chanson
!!!SCT: NJE 30.7
!!!SCA: New Josquin Edition 30.7
!!!voices: 6
**kern	**text	**kern	**text	**kern	**text	**kern	**text	**kern	**text	**kern	**text
*staff6	*	*staff5	*	*staff4	*	*staff3	*	*staff2	*	*staff1	*
*Ivox	*	*Ivox	*	*Ivox	*	*Ivox	*	*Ivox	*	*Ivox	*
*I"Bassus	*	*I"Sextus	*	*I"Tenor	*	*I"Contratenor	*	*I"Quintus	*	*I"Superius	*
*I'B	*	*I'Sx	*	*I'T	*	*I'Ct	*	*I'Q	*	*I'S	*
*clefF4	*	*clefF4	*	*clefGv2	*	*clefGv2	*	*clefG2	*	*clefG2	*
*k[]	*	*k[]	*	*k[]	*	*k[]	*	*k[]	*	*k[]	*
*M2/1	*	*M2/1	*	*M2/1	*	*M2/1	*	*M2/1	*	*M2/1	*
*met(C|)	*	*met(C|)	*	*met(C|)	*	*met(C|)	*	*met(C|)	*	*met(C|)	*
=1-	=1-	=1-	=1-	=1-	=1-	=1-	=1-	=1-	=1-	=1-	=1-
!	!	!	!	!LO:TX:Z=6:t=Canon at the unison (T-->Ct, 1 breve)	!	!	!	!	!	!	!
0B	Pe-	0r	.	0r	.	0r	.	0r	.	0r	.
=2	=2	=2	=2	=2	=2	=2	=2	=2	=2	=2	=2
1E	-ti-	0r	.	0r	.	0r	.	0r	.	0b	Pe-
1B	-te,	.	.	.	.	.	.	.	.	.	.
=3	=3	=3	=3	=3	=3	=3	=3	=3	=3	=3	=3
2r	.	0r	.	0r	.	0r	.	0b	Pe-	1e	-ti-
2E\	pe-	.	.	.	.	.	.	.	.	.	.
2G\	-ti-	.	.	.	.	.	.	.	.	1b	-te
2G\	-te,	.	.	.	.	.	.	.	.	.	.
=4	=4	=4	=4	=4	=4	=4	=4	=4	=4	=4	=4
4C/	ca-	0E	Pe-	0r	.	0r	.	1e	-ti-	1cc	ca-
4D\	.	.	.	.	.	.	.	.	.	.	.
4E\	-mu-	.	.	.	.	.	.	.	.	.	.
4F\	.	.	.	.	.	.	.	.	.	.	.
4G\	-set-	.	.	.	.	.	.	1b	-te	1b	-mu-
4A\	.	.	.	.	.	.	.	.	.	.	.
4B\	.	.	.	.	.	.	.	.	.	.	.
4G\	.	.	.	.	.	.	.	.	.	.	.
=5	=5	=5	=5	=5	=5	=5	=5	=5	=5	=5	=5
1A	-te,	1AA	-ti-	0e	Pe-	0r	.	1cc	ca-	1a	-set-
1r	.	1E	-te,	.	.	.	.	1b	-mu-	1g	-te,
=6	=6	=6	=6	=6	=6	=6	=6	=6	=6	=6	=6
2r	.	0r	.	1A	-ti-	0e	Pe-	1a	-set-	1r	.
2A\	pe-	.	.	.	.	.	.	.	.	.	.
2c\	-ti-	.	.	1e	-te	.	.	1g	-te,	2r	.
2c\	-te	.	.	.	.	.	.	.	.	2cc\	pe-
=7	=7	=7	=7	=7	=7	=7	=7	=7	=7	=7	=7
2.F\	ca-	2r	.	1f	ca-	1A	-ti-	1r	.	2cc\	-ti-
.	.	2A\	pe-	.	.	.	.	.	.	2cc\	-te
4G\	-mu-	.	.	.	.	.	.	.	.	.	.
1A	-set-	2c\	-ti-	1e	-mu-	1e	-te	2r	.	4cc\	ca-
.	.	.	.	.	.	.	.	.	.	4dd\	.
.	.	2c\	-te,	.	.	.	.	2a/	pe-	4ee\	-mu-
.	.	.	.	.	.	.	.	.	.	4cc\	.
=8	=8	=8	=8	=8	=8	=8	=8	=8	=8	=8	=8
1D	-te,	2.F\	ca-	1d	-set-	1f	ca-	2a/	-ti-	2dd\	-set-
.	.	.	.	.	.	.	.	2a/	-te	2a/	-te,
.	.	4G\	-mu-	.	.	.	.	.	.	.	.
1r	.	1A	-set-	1c	-te,	1e	-mu-	4cc\	ca-	2r	.
.	.	.	.	.	.	.	.	4dd\	.	.	.
.	.	.	.	.	.	.	.	4ee\	-mu-	2a/	a
.	.	.	.	.	.	.	.	4cc\	.	.	.
=9	=9	=9	=9	=9	=9	=9	=9	=9	=9	=9	=9
2r	.	1D	-te,	2r	.	1d	-set-	2dd\	-set-	2a/	la
2D\	a	.	.	2d\	a	.	.	2a/	-te,	2a/	mort
2A\	la	1r	.	2e\	la	1c	-te,	1r	.	2.cc\	m'a-
2E\	mort	.	.	2e\	mort	.	.	.	.	.	.
.	.	.	.	.	.	.	.	.	.	4b\	.
=10	=10	=10	=10	=10	=10	=10	=10	=10	=10	=10	=10
2F\	m'a-	2r	.	2c\	m'a-	2r	.	1r	.	2a/	.
2F\	-vez	2D\	a	2A/	.	2d\	a	.	.	2a/	-vez
1E	mis,	2G\	la	1B	-vez	2e\	la	2r	.	1g	mis,
.	.	2E\	mort	.	.	2e\	mort	2g/	a	.	.
=11	=11	=11	=11	=11	=11	=11	=11	=11	=11	=11	=11
2r	.	2F\	m'a-	1A	mis,	2c\	m'a-	2a/	la	0r	.
2D\	a	2F\	-vez	.	.	2A/	.	2a/	mort	.	.
2G\	la	1E	mis,	1r	.	1B	-vez	1g	m'a-	.	.
2E\	mort	.	.	.	.	.	.	.	.	.	.
=12	=12	=12	=12	=12	=12	=12	=12	=12	=12	=12	=12
2F\	m'a-	2r	.	2r	.	1A	mis,	1a	-vez	1r	.
2F\	-vez	2D\	a	2d\	a	.	.	.	.	.	.
1E	mis,	2G\	la	2e\	la	1r	.	1g	mis,	2r	.
.	.	2E\	mort	2e\	mort	.	.	.	.	2g/	a
=13	=13	=13	=13	=13	=13	=13	=13	=13	=13	=13	=13
1r	.	1F	m'a-	2c\	m'a-	2r	.	1r	.	2a/	la
.	.	.	.	2A/	.	2d\	a	.	.	2a/	mort
2r	.	1E	-vez	1B	-vez	2e\	la	2r	.	4g/	m'a-
.	.	.	.	.	.	.	.	.	.	4a/	.
2E\	a	.	.	.	.	2e\	mort	2b\	a	4b\	-vez
.	.	.	.	.	.	.	.	.	.	4g/	.
=14	=14	=14	=14	=14	=14	=14	=14	=14	=14	=14	=14
2E\	la	1AA	mis.	1A	mis.	2c\	m'a-	3.cc\V	la	1a	mis.
2F\	mort	.	.	.	.	2A/	.	6b\	.	.	.
.	.	.	.	.	.	.	.	3a/Z	.	.	.
2E\	m'a-	1r	.	1r	.	1B	-vez	3g#i/V	mort	1r	.
.	.	.	.	.	.	.	.	3a/	m'a-	.	.
2E\	-vez	.	.	.	.	.	.	.	.	.	.
.	.	.	.	.	.	.	.	3g#i/Z	-vez	.	.
=15	=15	=15	=15	=15	=15	=15	=15	=15	=15	=15	=15
1AA	mis.	2r	.	1c	Ro-	1A	mis.	1a	mis,	2r	.
.	.	2AA/	Ro-	.	.	.	.	.	.	2a/	Ro-
2r	.	1A	-bin,	1c	-bin,	1r	.	2r	.	1cc	-bin,
2AA/	Ro-	.	.	.	.	.	.	2a/	Ro-	.	.
=16	=16	=16	=16	=16	=16	=16	=16	=16	=16	=16	=16
1A	-bin,	2r	.	0r	.	1c	Ro-	1cc	bin,	2r	.
.	.	2AA/	Ro-	.	.	.	.	.	.	2a/	Ro-
2r	.	1A	-bin,	.	.	1c	-bin,	2r	.	1cc	-bin,
2AA/	Ro-	.	.	.	.	.	.	2a/	Ro-	.	.
=17	=17	=17	=17	=17	=17	=17	=17	=17	=17	=17	=17
3%2AV	-bin	1r	.	2r	.	0r	.	2cc\	-bin	2r	.
.	.	.	.	2c\	Ro-	.	.	2cc\	et	2e/	Ro-
3A\Z	et	.	.	.	.	.	.	.	.	.	.
3.G\V	Ma-	2r	.	2d\	-bin	.	.	2b\	Ma-	1g	-bin,
6F\	.	2E\	Ro-	2e\	et	.	.	2b\	-ri-	.	.
3G\Z	-ri-	.	.	.	.	.	.	.	.	.	.
=18	=18	=18	=18	=18	=18	=18	=18	=18	=18	=18	=18
1A	-on,	3%2AV	-bin	1c	Ma-	2r	.	2.e/	-on,	1r	.
.	.	.	.	.	.	2c\	Ro-	.	.	.	.
.	.	3A\Z	et	.	.	.	.	.	.	.	.
.	.	.	.	.	.	.	.	4f/	.	.	.
2r	.	3.G\V	Ma-	1B	-ri-	2d\	-bin	1g	.	2r	.
2E\	Ro-	6F\	.	.	.	2e\	et	.	.	2b\	Ro-
.	.	3G\Z	-ri-	.	.	.	.	.	.	.	.
=19	=19	=19	=19	=19	=19	=19	=19	=19	=19	=19	=19
2AA/	-bin	1A	-on,	1A	-on,	1c	Ma-	1r	.	2cc\	-bin
2C/	et	.	.	.	.	.	.	.	.	2a/	et
2D\	Ma-	2r	.	1r	.	1B	-ri-	2r	.	2a/	Ma-
2E\	-ri-	2E\	s'en	.	.	.	.	2b\	s'en	2g#i/	-ri-
=20	=20	=20	=20	=20	=20	=20	=20	=20	=20	=20	=20
1AA	-on	3%2AV	vont	2r	.	1A	-on,	2cc\	vont	2a/	-on,
.	.	.	.	2c\	s'en	.	.	2cc\	au	2e/	Ro-
.	.	3A\Z	au	.	.	.	.	.	.	.	.
2r	.	3.G\V	bois	2d\	vont	1r	.	2b\	bois	1g	-bin,
2E\	s'en	6F\	.	2e\	au	.	.	2b\	jo-	.	.
.	.	3G\Z	jo-	.	.	.	.	.	.	.	.
=21	=21	=21	=21	=21	=21	=21	=21	=21	=21	=21	=21
3%2AV	vont	1A	-ly.	1c	bois	2r	.	2.e/	-ly.	1r	.
.	.	.	.	.	.	2c\	s'en	.	.	.	.
3A\Z	au	.	.	.	.	.	.	.	.	.	.
.	.	.	.	.	.	.	.	4f/	.	.	.
3.G\V	bois	2r	.	1B	jo-	2d\	vont	1g	.	2r	.
6F\	.	2E\	s'en	.	.	2e\	au	.	.	2b\	s'en
3G\Z	jo-	.	.	.	.	.	.	.	.	.	.
=22	=22	=22	=22	=22	=22	=22	=22	=22	=22	=22	=22
1A	-ly.	2AA/	vont	1A	-ly.	1c	bois	0r	.	2cc\	vont
.	.	2C/	au	.	.	.	.	.	.	2a/	au
1r	.	2D\	bois	1r	.	1B	jo-	.	.	2a/	bois
.	.	2E\	jo-	.	.	.	.	.	.	2g#i/	jo-
=23	=23	=23	=23	=23	=23	=23	=23	=23	=23	=23	=23
2r	.	0AA	-ly.	1e	Ilz	1A	-ly.	2r	.	1a	-ly.
2E\	Ilz	.	.	.	.	.	.	2a/	ilz	.	.
2.A\	s'en	.	.	2e\	s'en	1r	.	2.cc\	s'en	2r	.
.	.	.	.	2e\	vont	.	.	.	.	2c/	Ilz
4A\	vont	.	.	.	.	.	.	4cc\	vont	.	.
=24	=24	=24	=24	=24	=24	=24	=24	=24	=24	=24	=24
2G\	bras	1r	.	2e\	bras	1e	Ilz	2b\	bras	2g/	s'en
2A\	a	.	.	2e\	a	.	.	2a/	a	2c/	vont,
1E	bras,	2r	.	1e	bras,	2e\	s'en	1g	bras,	2r	.
.	.	2E\	Ilz	.	.	2e\	vont	.	.	2b\	ilz
=25	=25	=25	=25	=25	=25	=25	=25	=25	=25	=25	=25
1r	.	2.A	s'en	0r	.	2e\	bras	2r	.	2.cc\	s'en
.	.	.	.	.	.	2e\	a	2c/	ilz	.	.
.	.	4A	vont	.	.	.	.	.	.	4cc\	vont
2r	.	2G	bras	.	.	1e	bras,	2g/	se	2b\	bras
2AA/	ilz	2A	a	.	.	.	.	2c/	sont	2a/	a
=26	=26	=26	=26	=26	=26	=26	=26	=26	=26	=26	=26
2C/	se	1E	bras,	2r	.	0r	.	4e/	en-	1g	bras,
.	.	.	.	.	.	.	.	4f/	.	.	.
2C/	sont	.	.	2e\	ilz	.	.	4g/	-dor-	.	.
.	.	.	.	.	.	.	.	4e/	.	.	.
2D\	en-	2r	.	2d\	se	.	.	2.f/	-mis.	1r	.
2D\	-dor-	2F\	ilz	2d\	sont	.	.	.	.	.	.
.	.	.	.	.	.	.	.	4e/	.	.	.
=27	=27	=27	=27	=27	=27	=27	=27	=27	=27	=27	=27
1AA	mis.	2E\	se	2e\	en-	2r	.	1c	.	2r	.
.	.	2C/	sont	2e\	-dor-	2e\	ilz	.	.	2a/	ilz
1r	.	2D\	en-	2.f\	-mis.	2d\	se	1r	.	2a/	se
.	.	2D\	-dor-	.	.	2d\	sont	.	.	2a/	sont
.	.	.	.	4e\	.	.	.	.	.	.	.
=28	=28	=28	=28	=28	=28	=28	=28	=28	=28	=28	=28
1A	Pe-	1AA	-mis.	1c	.	2e\	en-	1r	.	1cc	en-
.	.	.	.	.	.	2e\	-dor-	.	.	.	.
1D	-ti-	1A	Pe-	1r	.	2.f\	-mis.	2r	.	1dd	-dor-
.	.	.	.	.	.	.	.	2a/	Pe-	.	.
.	.	.	.	.	.	4e\	.	.	.	.	.
=29	=29	=29	=29	=29	=29	=29	=29	=29	=29	=29	=29
1A	-te,	1AA	-ti-	0e	Pe-	1c	.	2.cc\	ti-	1ee	-mis.
.	.	.	.	.	.	.	.	4cc\	-te	.	.
1r	.	1E	-te,	.	.	1r	.	2b\	ca-	2r	.
.	.	.	.	.	.	.	.	2g/	-mu-	2b\	Pe-
=30	=30	=30	=30	=30	=30	=30	=30	=30	=30	=30	=30
2r	.	0r	.	1A	ti-	0e	Pe-	1a	-set-	2cc\	-ti-
2A\	pe-	.	.	.	.	.	.	.	.	2a/	-te,
2c\	-ti-	.	.	1e	-te	.	.	1g	-te,	2r	.
2c\	-te	.	.	.	.	.	.	.	.	2cc\	pe-
=31	=31	=31	=31	=31	=31	=31	=31	=31	=31	=31	=31
2.F\	ca-	2r	.	1f	ca-	1A	ti-	1r	.	2cc\	-ti-
.	.	2A\	pe-	.	.	.	.	.	.	2cc\	-te
4G\	-mu-	.	.	.	.	.	.	.	.	.	.
1A	-set-	2c\	-ti-	1e	-mu-	1e	-te	2r	.	4cc\	ca-
.	.	.	.	.	.	.	.	.	.	4dd\	.
.	.	2c\	-te	.	.	.	.	2a/	pe-	4ee\	-mu-
.	.	.	.	.	.	.	.	.	.	4cc\	.
=32	=32	=32	=32	=32	=32	=32	=32	=32	=32	=32	=32
1D	-te,	2.F\	ca-	1d	-set-	1f	ca-	2a/	-ti-	2dd\	-set-
.	.	.	.	.	.	.	.	2a/	-te	2a/	-te,
.	.	4G\	-mu-	.	.	.	.	.	.	.	.
1r	.	1A	-set-	1c	-te,	1e	-mu-	4cc\	ca-	2r	.
.	.	.	.	.	.	.	.	4dd\	.	.	.
.	.	.	.	.	.	.	.	4ee\	-mu-	2a/	a
.	.	.	.	.	.	.	.	4cc\	.	.	.
=33	=33	=33	=33	=33	=33	=33	=33	=33	=33	=33	=33
2r	.	1D	-te,	2r	.	1d	-set-	2dd\	-set-	2a/	la
2D\	a	.	.	2d\	a	.	.	2a/	-te,	2a/	mort
2A\	la	1r	.	2e\	la	1c	-te,	1r	.	2.cc\	m'a-
2E\	mort	.	.	2e\	mort	.	.	.	.	.	.
.	.	.	.	.	.	.	.	.	.	4b\	.
=34	=34	=34	=34	=34	=34	=34	=34	=34	=34	=34	=34
2F\	m'a-	2r	.	2c\	m'a-	2r	.	1r	.	2a/	.
2F\	-vez	2D\	a	2A/	.	2d\	a	.	.	2a/	-vez
1E	mis,	2G\	la	1B	-vez	2e\	la	2r	.	1g	mis,
.	.	2E\	mort	.	.	2e\	mort	2g/	a	.	.
=35	=35	=35	=35	=35	=35	=35	=35	=35	=35	=35	=35
2r	.	2F\	m'a-	1A	mis,	2c\	m'a-	2a/	la	0r	.
2D\	a	2F\	-vez	.	.	2A/	.	2a/	mort	.	.
2G\	la	1E	mis,	1r	.	1B	-vez	1g	m'a-	.	.
2E\	mort	.	.	.	.	.	.	.	.	.	.
=36	=36	=36	=36	=36	=36	=36	=36	=36	=36	=36	=36
2F\	m'a-	2r	.	2r	.	1A	mis,	1a	-vez	1r	.
2F\	-vez	2D\	a	2d\	a	.	.	.	.	.	.
1E	mis,	2G\	la	2e\	la	1r	.	1g	mis,	2r	.
.	.	2E\	mort	2e\	mort	.	.	.	.	2g/	a
=37	=37	=37	=37	=37	=37	=37	=37	=37	=37	=37	=37
1r	.	1F	m'a-	2c\	m'a-	2r	.	1r	.	2a/	la
.	.	.	.	2A/	.	2d\	a	.	.	2a/	mort
2r	.	1E	-vez	1B	-vez	2e\	la	2r	.	4g/	m'a-
.	.	.	.	.	.	.	.	.	.	4a/	.
2E\	a	.	.	.	.	2e\	mort	2b\	a	4b\	-vez
.	.	.	.	.	.	.	.	.	.	4g/	.
=38	=38	=38	=38	=38	=38	=38	=38	=38	=38	=38	=38
2E\	la	1AA	mis,	1A	mis,	2c\	m'a-	3.cc\V	la	1a	mis,
2F\	mort	.	.	.	.	2A/	.	6b\	.	.	.
.	.	.	.	.	.	.	.	3a/Z	.	.	.
2E\	m'a-	2r	.	1r	.	1B	-vez	3g#i/V	mort	2r	.
.	.	.	.	.	.	.	.	3a/	m'a-	.	.
2E\	-vez	2E\	a	.	.	.	.	.	.	2b\	a
.	.	.	.	.	.	.	.	3g#i/Z	-vez	.	.
=39	=39	=39	=39	=39	=39	=39	=39	=39	=39	=39	=39
2AA/	mis,	2E\	la	[0Al	mis.	[0Al	mis.	2a/	mis,	2cc\	la
2D\	a	2D\	mort	.	.	.	.	2f/	a	2a/	mort
2C/	la	1E	m'a-	.	.	.	.	2e/	la	2.cc\	m'a-
2AA/	mort	.	.	.	.	.	.	2c/	mort	.	.
.	.	.	.	.	.	.	.	.	.	4b\	.
=40	=40	=40	=40	=40	=40	=40	=40	=40	=40	=40	=40
1D	m'a-	2.F\	.	0A_	.	0A_	.	1d	m'a-	4a/	.
.	.	.	.	.	.	.	.	.	.	4g/	.
.	.	.	.	.	.	.	.	.	.	1f	.
.	.	4D\	.	.	.	.	.	.	.	.	.
1D	-vez	1F	-vez	.	.	.	.	1d	-vez	.	.
.	.	.	.	.	.	.	.	.	.	4e/	-vez
.	.	.	.	.	.	.	.	.	.	4d/	.
=41	=41	=41	=41	=41	=41	=41	=41	=41	=41	=41	=41
0AAl	mis.	0El	mis.	0A]	.	0A]	.	0el	mis.	0cl	mis.
==	==	==	==	==	==	==	==	==	==	==	==
*-	*-	*-	*-	*-	*-	*-	*-	*-	*-	*-	*-
!!!RDF**kern: l=long note in original notation
!!!RDF**kern: i=editorial accidental
!!!ENC: Will Watson 09/09/2011
!!!END: 2011/09/09/
!!!EED: Jesse Rodin
!!!EEV: 2011/10/07/
!!attribution-level@Jos: 1 (secure, core group [checkmark])
!!!ONB: Translated from MusicXML and edited on 2011/10/07/ by Craig Sapp
!!muse2ps: C^@{COM}\n@{SCT}^i2I150v85,85,85,85,85,100z18l2550t200c80
